X: 364
T: Khosid dance
O: Transylvania
D: "Muszik\'as - The Lost Jewish Music of Transylvania (Hannibal 1373)
Z: John Chambers <jc:trillian.mit.edu>
R: cs\'ard\'as
M: 2/4
L: 1/16
K: Dm
|: "Dm"A2d^c d2e2 | {g}f2f2 e2{fe}d2 | f2f2 e2{fe}d2 | fefg fed2 
|      A2d^c d2e2 | f2{ef}gf e2{fe}d2 | {g}f2f2 "A7"ed^ce |1 "Dm"d2 d6 :|2 "Dm"d2 d4 "C7"c2 |
|: "F"a2a2 ag^f2 | "C"g2g2 g2fe | "F"f2g2 fede | "(Dm)"f4 d2fg |
|  "F"a2a2 ag^f2 | "C"g2g2 "(A7)"g2fe | "Dm"f2g2 "(A7)"fgfe |1 "Dm"dA=B^c defg :|2 "Dm"d2 d6 |]



